X:22
T:Dymuniad
M:C
L:1/4
Q:60
C:R. Williams 1805 - 76
R:Hymn
K:G
E | G F E B | A G F F | G A B A/2 G/2 | F2 E F | G G A A | B B A B | G F
E A/2G/2 | F2 E ||
